status/symbolic/weather-showers-scattered-night-symbolic.svg

<?xml version="1.0" encoding="UTF-8" standalone="no"?>
<svg
   xmlns:dc="http://purl.org/dc/elements/1.1/"
   xmlns:cc="http://creativecommons.org/ns#"
   xmlns:rdf="http://www.w3.org/1999/02/22-rdf-syntax-ns#"
   xmlns:svg="http://www.w3.org/2000/svg"
   xmlns="http://www.w3.org/2000/svg"
   id="svg8"
   version="1.1"
   width="16"
   height="16">
  <metadata
     id="metadata14">
    <rdf:RDF>
      <cc:Work
         rdf:about="">
        <dc:format>image/svg+xml</dc:format>
        <dc:type
           rdf:resource="http://purl.org/dc/dcmitype/StillImage" />
        <dc:title></dc:title>
      </cc:Work>
    </rdf:RDF>
  </metadata>
  <defs
     id="defs12" />
  <path
     style="opacity:0.6;vector-effect:none;fill:#555761;fill-opacity:1;stroke:none;stroke-width:1.00000012;stroke-linecap:butt;stroke-linejoin:miter;stroke-miterlimit:4;stroke-dasharray:none;stroke-dashoffset:0;stroke-opacity:1;marker:none;paint-order:normal"
     d="m 9.000001,2.9999988 a 2.5,2.5 0 0 0 -2.164063,1.253906 1.5,1.5 0 0 0 -0.835937,-0.253906 1.5,1.5 0 0 0 -1.5,1.5 1.5,1.5 0 0 0 0.101562,0.542969 2,2 0 0 0 -1.601562,1.957031 2,2 0 0 0 2,2.0000002 h 6 a 2,2 0 0 0 2,-2.0000002 2,2 0 0 0 -1.56445,-1.951172 2.5,2.5 0 0 0 0.0644,-0.548828 2.5,2.5 0 0 0 -2.5,-2.5 z"
     id="path859-9-2" />
  <path
     id="rect1023-12-8"
     d="m 11.046877,11.011719 c 0.04834,0.0061 0.09565,0.02091 0.140625,0.04687 0.179917,0.103875 0.240594,0.333755 0.136719,0.513672 l -0.625,1.082031 c -0.103875,0.179917 -0.331802,0.240594 -0.511719,0.136719 -0.179917,-0.103875 -0.2405938,-0.331802 -0.136719,-0.511719 l 0.625,-1.082031 c 0.07791,-0.134938 0.226066,-0.203718 0.371094,-0.185547 z m -2.9082031,0 c 0.048343,0.0061 0.095646,0.02091 0.140625,0.04687 0.1799168,0.103875 0.2405937,0.333755 0.1367187,0.513672 l -0.625,1.082031 C 7.6871426,12.834214 7.4592157,12.894891 7.2792989,12.791016 7.0993821,12.687141 7.0387051,12.459214 7.1425801,12.279297 l 0.625,-1.082031 c 0.077906,-0.134938 0.2260657,-0.203718 0.3710938,-0.185547 z m -3.0917969,0 c 0.048343,0.0061 0.095646,0.02091 0.140625,0.04687 0.179917,0.103875 0.240594,0.333755 0.136719,0.513672 l -0.625,1.082031 C 4.595346,12.834214 4.367419,12.894891 4.187502,12.791016 4.007585,12.687141 3.946908,12.459214 4.050783,12.279297 l 0.625,-1.082031 C 4.75369,11.062328 4.901849,10.993548 5.046877,11.011719 Z m 4.0800781,0.865234 c 0.048343,0.0061 0.095646,0.02286 0.140625,0.04883 0.1799168,0.103875 0.2425469,0.331802 0.1386719,0.511719 l -0.625,1.082031 C 8.677377,13.699448 8.4474969,13.762078 8.2675801,13.658203 8.0876633,13.554328 8.0269864,13.324448 8.1308614,13.144531 l 0.625,-1.082031 c 0.077906,-0.134938 0.2260656,-0.203718 0.3710937,-0.185547 z m -3.0273437,0 c 0.048343,0.0061 0.097599,0.02286 0.1425781,0.04883 0.1799168,0.103875 0.2405938,0.331802 0.1367187,0.511719 L 5.753908,13.519531 C 5.650033,13.699448 5.422106,13.762078 5.24219,13.658203 5.062273,13.554328 4.999643,13.324448 5.103518,13.144531 l 0.625,-1.082031 c 0.077906,-0.134938 0.226065,-0.203718 0.3710934,-0.185547 z"
     style="opacity:1;vector-effect:none;fill:#64baff;fill-opacity:1;stroke:none;stroke-width:1.00000012;stroke-linecap:butt;stroke-linejoin:miter;stroke-miterlimit:4;stroke-dasharray:none;stroke-dashoffset:0;stroke-opacity:1;marker:none;paint-order:normal" />
</svg>

<svg
        xmlns='http://www.w3.org/2000/svg'
        xmlns:svg='http://www.w3.org/2000/svg'
        id='svg8'
        width='16'
        height='16'>
  <path
          id='path859-9-2'
          opacity='0.6'
          fill='url(#gpa:foreground) #555761'
          fill-opacity='1'
          fill-rule='nonzero'
          stroke='none'
          stroke-opacity='1'
          stroke-width='1'
          stroke-linecap='butt'
          stroke-linejoin='miter'
          stroke-miterlimit='4'
          stroke-dasharray='none'
          stroke-dashoffset='0'
          marker-start='none'
          marker-mid='none'
          marker-end='none'
          paint-order='normal'
          d='M 9 3 A 2.5 2.5 0 0 0 6.83594 4.2539 A 1.5 1.5 0 0 0 6 4 A 1.5 1.5 0 0 0 4.5 5.5 A 1.5 1.5 0 0 0 4.60156 6.04297 A 2 2 0 0 0 3 8 A 2 2 0 0 0 5 10 L 11 10 A 2 2 0 0 0 13 8 A 2 2 0 0 0 11.4356 6.04883 A 2.5 2.5 0 0 0 11.5 5.5 A 2.5 2.5 0 0 0 8.99995 3 Z'
          class="foreground">
  </path>
  <path
          id='rect1023-12-8'
          opacity='1'
          fill='rgb(100,186,255)'
          fill-opacity='1'
          stroke='none'
          stroke-opacity='1'
          stroke-width='1'
          stroke-linecap='butt'
          stroke-linejoin='miter'
          stroke-miterlimit='4'
          stroke-dasharray='none'
          stroke-dashoffset='0'
          marker-start='none'
          marker-mid='none'
          marker-end='none'
          paint-order='normal'
          d='M 11.0469 11.0117 C 11.0952 11.0178, 11.1425 11.0326, 11.1875 11.0586 C 11.3674 11.1625, 11.4281 11.3923, 11.3242 11.5723 L 10.6992 12.6543 C 10.5953 12.8342, 10.3674 12.8949, 10.1875 12.791 C 10.0076 12.6871, 9.94691 12.4592, 10.0508 12.2793 L 10.6758 11.1973 C 10.7537 11.0623, 10.9018 10.9935, 11.0469 11.0117 Z M 8.13867 11.0117 C 8.18702 11.0178, 8.23432 11.0326, 8.2793 11.0586 C 8.45922 11.1625, 8.51989 11.3923, 8.41602 11.5723 L 7.79102 12.6543 C 7.68714 12.8342, 7.45922 12.8949, 7.2793 12.791 C 7.09938 12.6871, 7.0387 12.4592, 7.14258 12.2793 L 7.76758 11.1973 C 7.84549 11.0623, 7.99365 10.9935, 8.13867 11.0117 Z M 5.04688 11.0117 C 5.09522 11.0178, 5.14252 11.0326, 5.1875 11.0586 C 5.36742 11.1625, 5.4281 11.3923, 5.32422 11.5723 L 4.69922 12.6543 C 4.59535 12.8342, 4.36742 12.8949, 4.1875 12.791 C 4.00759 12.6871, 3.94691 12.4592, 4.05078 12.2793 L 4.67578 11.1973 C 4.75369 11.0623, 4.90185 10.9935, 5.04688 11.0117 Z M 9.12696 11.877 C 9.1753 11.8831, 9.2226 11.8998, 9.26758 11.9258 C 9.4475 12.0297, 9.51013 12.2576, 9.40625 12.4375 L 8.78125 13.5195 C 8.67738 13.6994, 8.4475 13.7621, 8.26758 13.6582 C 8.08766 13.5543, 8.02699 13.3244, 8.13086 13.1445 L 8.75586 12.0625 C 8.83377 11.9276, 8.98193 11.8588, 9.12696 11.877 Z M 6.09961 11.877 C 6.14795 11.8831, 6.19721 11.8998, 6.24219 11.9258 C 6.42211 12.0297, 6.48278 12.2576, 6.37891 12.4375 L 5.75391 13.5195 C 5.65003 13.6994, 5.42211 13.7621, 5.24219 13.6582 C 5.06227 13.5543, 4.99964 13.3244, 5.10352 13.1445 L 5.72852 12.0625 C 5.80642 11.9276, 5.95458 11.8588, 6.09961 11.877 Z'>
  </path>
</svg>
